!!!COM: Webern, Anton : von
!!!OPS: Opus 12 (Gesang und Klavier)
!!!OMV: Number 3
!!!OPR: Vier Lieder
!!!OTL: Schien Mir's, Als ich sah die Sonne (aus August Strindbergs "Gespensteronate"
!!!YEC: Copyright 1995 McGill???
!!!CDT: 1993/12/3-1945/9/15 
!!!YOR: Universal Edition
!!!YOO: Copyright 1925 by Universal Edition, renewed 1953 by Anton Webern's Erben
!!!ENC:Norma Welch
**kern	**kern	**kern	**text
*staff3	*staff2	*staff1	*
*ClefF4	*ClefG2	*ClefG2	*
*ICklav	*ICklav	*Ivox	*
*Ipiano	*Ipiano	*Ivox	*
*M3/8	*M3/8	*M3/8	*
*MM63	*MM63	*MM63	*
*k[]	*k[]	*k[]	*
*X:	*X:	*X:	*
!!Ruhig flie·end (dotted quarter = ca 42) [eighth=126xx]
!pp	!pp	!	!
=1-	=1-	=1-	=1-
4.r	8g#'	4.r	%
.	8een'	.	%
.	8aan'	.	%
=2	=2	=2	=2
*	*^	*	*
!	!16dnP grace note	!here too	!
8r	[4.dp	8.ee-'	.	%
[4C# [4F#	.	{16fn	.	%
.	.	16gn	.	%
.	.	[8fn	.	%
=3	=3	=3	=3	=3
16C#] 16F#]	16d]	16fn]}	4.r	%
*	*v	*v	*	*
16r	16r	.	%
!!rit.
!	!p	!	!
8r	(8b-	.	%
8r	8a-)	.	%
=4	=4	=4	4
16En' 16Gn'	16r	8r	%
16r	16cn' 16e-' 16bn'	.	%
16En' 16Gn'	16r	8r	%
16r	16r	.	%
8r	8r	16r	%
!	!	!p	!p
.	.	{[16ddn	{Schien
=5	=5	=5	=5
8FFn~	16r	4ddn]	||
!!tempo
.	(16B-	.	||
(16CCn	8g-')	.	||
16C#)	.	.	||
!!Unable to show phrasing from CC C# in LH to G# e in RH here
8GGn~ 8Cn~	(16G#	8an}	mir's} ,
.	16en)	.	|
=6	=6	=6	=6
16AAA-P	{16a- 16ee-	8r	%
8.B-p 8.F#p 8.cnp	16ggn	.	%
!!Begin Pedal
.	16een	{8c#	{als
.	16fn	.	|
!!end pedal
8r	16Bn	8gn	ich
.	16c#}	.	|
=7	=7	=7	=7
4.r	16r	4ccn}	sah
!	!p	!	!
.	{16An	.	|
.	16g#	.	|
.	16f#}	.	|
.	8r	{16bn	die
=8	=8	=8	=8
8r	16r	8gg#	Son~
!pp	!pp	!	!
.	16cn	.	|
!!rit.
8EEE-'	8fn 8b-	8.een	||
8BBn'	8G# 8c#	.	||
.	.	16gn}	~ne} ,
=9	=9	=9	=9
!p	!p	!p	!p
!!tempo
{16an	8.r	8r	%
16fn	.	.	%
16G-	.	{8d#	{da·
16B-}	{16bn	.	|
8r	16ee-	16en	ich
.	16cn	.	|
=10	=10	=10	=10
!pp	!pp	!	!
16rx	16b-' 16een' 16aan'	8ddn	schau~
16Gn' 16Bn' 16f#'	16rx	.	||
16rx	16a-'	8cc#	~te
16A-' 16cn' 16gn'	16rx	.	|
8r	8r	16fn	den
.	.	16en	Ver~
=11	=11	=11	=11
!!rit.
8r	8r	4f#	~borg~
!	!p	!	!
8r	8ffn'	.	||
{[8DDDn	16r	8B-}	~nen}
!	!sf	!	!
.	[16eeenz [16ccccnz [16eeee-z	.	|
=12	=12	=12	=12
!!tempo
8DDDn]	16eeen] 16ccccn] 16eeee-]	4.r	%
.	16bbn': 16gggn': 16bbb-':	.	%
8BBBn	16r	.	%
.	16g#': 16ddn': 16aan':	.	%
8EE-	16r	.	%
!	!p	!	!
.	([16c# ([16en ([16ccn	.	%
=13	=13	=13	=13
!!rit.
8AAn	4c#] 4en] 4ccn]	4.r	%
4FFn}	.	.	%
.	8dn) 8f#) 8bn)	.	%
=14	=14	=14	=14
!!tempo
!p	!p	!p	!p
(4BB-	16r	8r	%
.	{[8.c# {[8.fn {[8.ccn	.	%
.	.	{8gn	{je~
[8FF#	8c#] 8fn] 8ccn]	8an	~der
=15	=15	=15	=15
*	*ClefF4	*	*
4FF#])	[4.Dn [4.An [4.e-	8a-	Mensch
.	.	8cn}	|
*ClefG2	*	*	*
!!rit.
(16gn	.	{8bn	ge~
*ClefF4	*	*	*
[16EEn	.	.	||
=16	=16	=16	=16
8.EEn])	8Dn] 8An] 8e-]	4g#	nie·t
.	[4E- [4Gn [4c#	.	|
{16f#	.	.	|
16GG#	.	8an	die
[16DDn	.	.	|
=17	=17	=17	=17
*M2/8	*M2/8	*M2/8	*M2/8
!pp	!pp	!	!
4DDn]	4E-]} 4Gn]} 4c#]}	16cn	Wer~
.	.	16g#	||
.	.	16an}	~ke} ,
!	!	!f	!f
.	.	{[16ffn	{se~
=18	=18	=18	=18
!!tempo
*M3/8	*M3/8	*M3/8	*M3/8
!mf	!mf	!	!
*	*ClefG2	*	*
8.r	8r	4ffn]	||
*	*^	*	*
.	[4Bn	8en	.	||
16GGGn'	.	.	.	||
8CCn'	.	[8f# [8b-	[8een	lig~
=19	=19	=19	=19	=19
[8.A-	8.Bn_	8.f#] 8.b-]	8een]}	||
!p	!p	!p	!p	!p
!!rit.
.	.	.	{8cc#	der
!	!	!f# should be tied	!	!
8A-]	8Bn]	8f# 8an	.	|
.	.	.	8ccn	das
*	*v	*v	*	*
16r	16r	.	|
=20	=20	=20	=20
*M2/8	*M2/8	*M2/8	*M2/8
8D-'	8G-'8cn '8fn'	16dn	Gu~
.	.	16ee-	~te
16r	8r	16b-	Å~
(16En	.	16an}	~bet} *
=21	=21	=21	=21
!!tempo
!	!f	!f	!f
8BBB-')	16c#': 16gn': 16bn': 16ddn':	8r	%
.	16An' 16e-' 16a-'	.	%
16r	8r	{16gg-	{FÅr
!sf	!	!	!
([16BBnz ([16Cnz	.	16ffn	die
=22	=22	=22	=22
16BBn] 16Cn]	12r	16en	Zor~
8GG#) 8Gn)	.	16dd#	~nes~
.	12r	.	||
.	.	16en}	tat} ,
!	!p	!	!
.	([12bbn	.	|
16r	.	16r	%
=23	=23	=23	=23
!!rit.
*M3/8	*M3/8	*M3/8	*M3/8
!p	!	!p	!p
16r	8bbn]	16r	%
16BBB-' 16EE-' 16AAn'	.	{16g#	{die
16r	8cccn')	16fn	du
16AAAn' 16EEn' 16BB-'	.	16gn	ver~
8r	16r	16.d#	~Åb~
.	[16bbn^z	.	||
.	.	32en	~test} ,
=24	=24	=24	=24
*M2/8	*M2/8	*M2/8	*M2/8
!!tempo
16r	4bbn_	16r	%
(8FFFn (8BBB- (8GG-	.	.	%
!	!	!mf	!mf
.	.	(16.cc#	{bÅ~
16GGGn') 16BBBn') 16AA-')	.	.	||
.	.	32dn)	~·e
=25	=25	=25	=25
*M3/8	*M3/8	*M3/8	*M3/8
16r	8.bbn]	16dd#~	nicht
[8.DD- [8.EE- [8.AAn [8.Cn	.	16een~	mit
.	.	(8.b-	Bos~
.	16r	.	||
!	!mf	!	!
16DD-] 16EE-] 16AAn] 16Cn]	{8ffn	.	||
16r	.	16cc#)	heit} ;
=26	=26	=26	=26
*M2/4	*M2/4	*M2/4	*M2/4
!!rit.
!pp	!	!p	!p
8r	8.g-	16r	%
.	.	{[8.aan	trî~
[8EEn [8GGn [8BB- [8Fn	.	.	||
.	16e-	.	||
16EEn] 16GGn] 16BB-] 16Fn]	6ddn	16aan]	||
16r	.	16bn	~ste
16r	.	8g#}	den} ,
.	[12cc#	.	|
!p	!	!	!
16E-^ 16An^ 16cn^ 16en^	.	.	|
=27	=27	=27	=27
!!tempo
*M3/8	*M3/8	*M3/8	*M3/8
16r	16cc#]}	16r	%
!	!	!mf	!mf
(8G- (8B- (8dn (8fn	16r	{16ccn	{den
.	(8ggn	16an	du
16Fn) 16An) 16c#) 16f#)	.	16a-	be~
16r	16dd#')	16gn	~trÅb~
*ClefG2	*	*	*
16Bn' 16dn' 16gn' 16b-'	16r	16gg-}	~test} ,
=28	=28	=28	=28
*M2/4	*M2/4	*M2/4	*M2/4
*ClefF4	*	*	*
!	!	!f	!f
16r	6ccccn^ 6eeeen^	(8dd-	[gÅ~
16A-'^	.	.	||
16E-'^	.	8cn)	~tig] ,
.	6ccc#^ 6ggg#^	.	|
16Gn'^	.	.	|
16dn'^	.	8r	%
16F#'^	.	.	%
.	6ffn^ 6aan^	.	%
16BB-'^	.	16bn^	{und
.	.	16g#^	es
16En'^	.	16d#^	wird
.	.	16gn^	dir
=29	=29	=29	=29
*M3/8	*M3/8	*M3/8	*M3/8
4.Bn 4.fn	8.b- 8.ff#	(8.ddn	[from~
*	*ClefF4	*	*
.	16Cn	16b-)	~men]
.	8E- 8c#	8r	%
=30	=30	=30	=30
8r	8r	4.r	%
*	*ClefG2	*	*
4C# 4En 4B- 4e-	(8an	.	%
.	8f#)	.	%
=31	=31	=31	=31
8r	8r	4.r	%
8r	(8ccn	.	%
8BBn' 8Dn' 8B-'	8a-')	.	%
=32	=32	=32	=32
!	!	!f	!f
16r	16r	{8.ggn	{Der
[8.FFn [8.C#	[8.d# [8.b-	.	|
.	.	16ddn	nur
8FFn] 8C#]	8d#] 8b-]	16f#	fÅrch-
.	.	16ffn}	-tet} ,
=33	=33	=33	=33
!!rit.
16.r	16.r	16r	%
.	.	{8een	{der
(32GGn (32BBn (32D#	(32A- (32cn (32en	.	|
16EE-') 16GG-') 16En')	16Gn') 16B-') 16fn')	.	|
16r	16r	16ee-	sich
8r	8r	16dn	hat
.	.	16d-	ver~
=34	=34	=34	=34
*M2/4	*M2/4	*M2/4	*M2/4
*	*^	*	*
4r	16r	4r	8.a-	~gang~
!!trill marking for 3 measures - not sure what it refers to
.	[8.An	.	.	||
.	.	.	16ccn	~gen} :
8r	4An_	[4gn	4r	%
([8AA- ([8D-	.	.	.	%
=35	=35	=35	=35	=35
*M3/8	*M3/8	*M3/8	*M3/8	*
!!sehr ruhig
!!Eigth= ca 100
*MM50	*MM50	*MM50	*MM50	*
8AA-] 8D-]	4.An_	4gn]	(4.b-	gut
[4Cn [4G-	.	.	.	|
.	.	[8en~	.	|
=36	=36	=36	=36	=36
4Cn] 4G-]	4.An]	8en]	4.a-)	ist
.	.	4fn~	.	|
8GGn) 8E-)	.	.	.	|
=37	=37	=37	=37	=37
!pp	!pp	!pp	!p	!p
!!trill marking for 3 measures - for the chord????
!	!	!16B-P	!	!
[4.EEn [4.GG# [4.Fn	8r	[4.gn [4.bn	{4ddn	schuld~
.	[4d#	.	.	||
.	.	.	8d-	~los
=38	=38	=38	=38	=38
!!rit. to end of measure 40
4.EEn_ 4.GG#_ 4.Fn_	4.d#_	4gn] 4bn]	8cn	le~
.	.	.	8An}	~ben} *
.	.	[8g- [8b-	8r	%
=39	=39	=39	=39	=39
4.EEn] 4.GG#] 4.Fn]	4.d#]	8g-] 8b-]	4.r	%
.	.	(8g- (8cn	.	%
.	.	8gn) 8bn)	.	%
=40	=40	=40	=40	=40
*	*v	*v	*	*
32r	32r	4.r	%
!!pp
16.BB- 16.D-	16.An 16.dn	.	%
16r	16r	.	%
!!ppp
8CCn~ 8FF#~ 8BBn~	8A-~ 8d-~ 8fn~	.	%
16r	16r	.	%
=41	=41	=41	=41
!!I. Tempo
*MM63	*MM63	*MM63	*MM63
!!ppp Pedal
!16CCC#P	!	!	!
4.En~ 4.G#~ 4.dn~	8.gn~	4.r	%
.	16ff#'	.	%
.	8bbb-'	.	%
==|!	==|!	==|!	==|!
*-	*-	*-	*-
